dist/svg/file-close-o.svg

<!-- Generated by Trend Micro Style Portal -->
<svg version="1.1" xmlns="http://www.w3.org/2000/svg" width="16" height="16" viewBox="0 0 16 16">
  <title>file-close-o</title>
  <path fill="rgb(34,34,34)" d="M2 1h8v4h4v2h1v-3l-4-4h-9c-0.5 0-1 0.5-1 1v14c0 0.5 0.5 1 1 1h5v-1h-5v-14zM11 1.4l2.6 2.6h-2.6v-2.6zM15.8 14.8l0.2 0.2-1 1-3-3-3 3-1-1 3-3-3-3 1-1 3 3 3-3 1 1-3 3 2.8 2.8z"></path>
</svg>

<svg width="16" height="16" viewBox="0 0 16 16" fill="rgb(34, 34, 34)" xmlns="http://www.w3.org/2000/svg"><title>file-close-o</title><path d="M2 1H10V5H14V7H15V4L11 0H2C1.5 0 1 0.5 1 1V15C1 15.5 1.5 16 2 16H7V15H2V1ZM11 1.4L13.6 4H11V1.4ZM15.8 14.8L16 15L15 16L12 13L9 16L8 15L11 12L8 9L9 8L12 11L15 8L16 9L13 12L15.8 14.8Z" fill="rgb(34, 34, 34)" fill-opacity="1.00"/></svg>
